X: 3372
T: Ben's Nightmare
R: reel
M: 4/4
K: Dmajor
|:DE|F3G AFDd|=cAB2AFDB|AFDE FDB,G,|[=C/E/][=C/E/][=CE] [E2A2] [^C/E/][C/E/][CE] [E2A2]|
F3G AFDd|=cAc2AGFD|E=c c/c/c AGFD|A,DCE D2:|
|:z2|a2fa bafd|g2eg dgBg|{e}=f2=cf Afec|^c2fc acfc|
Af f/f/f afed|egdg B2=cB|Aaag e=cA=f|e=cA=F D2:|

